**kern	**kern	**kern	**kern
*staff3	*staff4	*staff1	*staff2
*clefF4	*clefF4	*clefG2	*clefG2
*k[f#c#]	*k[f#c#]	*k[f#c#]	*k[f#c#]
*M2/4	*M2/4	*M2/4	*M2/4
*D:	*D:	*D:	*D:
=-	=-	=-	=-
2r	24gLL	4r	2r
.	24e	.	.
.	24gJ	.	.
.	24f#L	.	.
.	24d#	.	.
.	24f#JJ	.	.
.	24gLL	4a 4aa	.
.	24e	.	.
.	24gJ	.	.
.	24eL	.	.
.	24c#	.	.
.	24eJJ	.	.
=277	=277	=277	=277
2r	24f#LL	4r	2r
.	24d	.	.
.	24f#J	.	.
.	24dL	.	.
.	24A	.	.
.	24dJJ	.	.
.	24ALL	8dd) 8ddd	.
.	24F#	.	.
.	24AJ	.	.
.	24F#L	8r	.
.	24D	.	.
.	24F#JJ	.	.
=278	=278	=278	=278
2r	24GLL	4r	2r
.	24E	.	.
.	24GJ	.	.
.	24F#L	.	.
.	24D#	.	.
.	24F#JJ	.	.
.	24GLL	4A 4a	.
.	24E	.	.
.	24GJ	.	.
.	24EL	.	.
.	24C#	.	.
.	24EJJ	.	.
=279	=279	=279	=279
2r	24F#LL	4r	2r
.	24D	.	.
.	24F#J	.	.
.	24DL	.	.
.	24AA	.	.
.	24DJJ	.	.
.	24AALL	8d) 8dd	.
.	24FF#	.	.
.	24AAJ	.	.
.	24FF#L	8r	.
.	24DD	.	.
.	24FF#JJ	.	.
=280	=280	=280	=280
2r	8CC#L	24r	2r
.	.	(24ALL	.
.	.	24BJ	.
.	(8EJ	32c#LL	.
.	.	32d	.
.	.	32e	.
.	.	32f#JJJ)	.
.	8C#L	24gLL	.
.	.	24a	.
.	.	24bJ	.
.	8GGJ)	24cc#L	.
.	.	24b	.
.	.	24aJJ	.
=281	=281	=281	=281
2r	8FF#L	(24ddLL	2r
.	.	24d	.
.	.	24eJ	.
.	(8AJ	32f#LL	.
.	.	32g	.
.	.	32a	.
.	.	32bJJJ)	.
.	8F#L	24cc#LL	.
.	.	24dd	.
.	.	24eeJ	.
.	8DJ)	24ff#L	.
.	.	24ee	.
.	.	24ddJJ	.
=282	=282	=282	=282
2r	(24C#LL	8gg	2r
.	24AA	.	.
.	24BBJ	.	.
.	32C#LL	8r	.
.	32D	.	.
.	32E	.	.
.	32F#JJJ)	.	.
.	24GLL	4gg 4aa 4eee	.
.	24A	.	.
.	24BJ	.	.
.	24c#L	.	.
.	24B	.	.
.	24AJJ	.	.
=283	=283	=283	=283
2r	24dLL	8ff# 8aa 8ddd	2r
.	24A	.	.
.	24F#J	.	.
.	24DL	8r	.
.	24AA	.	.
.	24FF#JJ	.	.
.	8DD	24r	.
.	.	24ddLL	.
.	.	24cc#J	.
.	8r	24ddL	.
.	.	24ee	.
.	.	24ff#JJ	.
=284	=284	=284	=284
*-	*-	*-	*-
